frontend/src/assets/AchtungSackgasse.svg

<svg width="33" height="33" viewBox="0 0 33 33" fill="none" xmlns="http://www.w3.org/2000/svg">
<path d="M14.768 3C15.5378 1.66667 17.4622 1.66667 18.232 3L29.0574 21.75C29.8272 23.0833 28.8649 24.75 27.3253 24.75H5.67468C4.13508 24.75 3.17283 23.0833 3.94263 21.75L14.768 3Z" fill="#FF1E1E"/>
<path d="M18.6651 2.75C17.7028 1.08333 15.2972 1.08333 14.3349 2.75L3.50962 21.5C2.54737 23.1667 3.75018 25.25 5.67468 25.25H27.3253C29.2498 25.25 30.4526 23.1667 29.4904 21.5L18.6651 2.75Z" stroke="white" stroke-opacity="0.8"/>
<path d="M17.6099 17.911H15.3808L15.065 9H17.9257L17.6099 17.911ZM16.4954 19.3064C16.9474 19.3064 17.3096 19.433 17.582 19.6861C17.8607 19.9393 18 20.2631 18 20.6576C18 21.0462 17.8607 21.3671 17.582 21.6202C17.3096 21.8734 16.9474 22 16.4954 22C16.0495 22 15.6873 21.8734 15.4087 21.6202C15.1362 21.3671 15 21.0462 15 20.6576C15 20.269 15.1362 19.9481 15.4087 19.695C15.6873 19.4359 16.0495 19.3064 16.4954 19.3064Z" fill="white"/>
</svg>

<svg xmlns="http://www.w3.org/2000/svg" width="33" height="33" fill="none" viewBox="0 0 33 33"><path fill="#ff1e1e" d="M14.768 3c.77-1.333 2.694-1.333 3.464 0l10.825 18.75c.77 1.333-.192 3-1.732 3H5.675c-1.54 0-2.502-1.667-1.732-3z"/><path stroke="#fff" stroke-opacity=".8" d="M18.665 2.75c-.962-1.667-3.368-1.667-4.33 0L3.51 21.5c-.963 1.667.24 3.75 2.165 3.75h21.65c1.925 0 3.128-2.083 2.165-3.75z"/><path fill="#fff" d="M17.61 17.911h-2.23L15.066 9h2.86zm-1.115 1.395q.679 0 1.087.38.418.38.418.972 0 .583-.418.962-.409.38-1.087.38-.669 0-1.086-.38a1.26 1.26 0 0 1-.409-.962q0-.583.409-.963.417-.39 1.086-.389"/></svg>
